!!!OTL: Osterlied des 15. Jahrhunderts
!!!ARE: Europa, Mitteleuropa, Deutschland
!!!SCT: A0553C
!!!YEM: Copyright 1995, estate of Helmut Schaffrath.
**kern
*ICvox
*Ivox
!! Mixed meters:  4/1; 4/2
*M4/2
*k[b-]
*d:
{2d
=1
1d
1a
1e
1g
=2
1fn
1e
1d
2r}
{2d
=3
1a
1b
1ccn
1b
=4
1a
1g
1a
2r}
{2a
=5
1dd
1b
1ccn
1a
=6
1g
1fn
1e
2r}
{2fn
=7
1d
1a
1e
1g
=8
1fn
1e
1d
1e}
=9
{2.cn
4d
2e
2d
=10
2.g
4e
2.a
4g
=11
1fn
1e}
==
!!!AGN: Romanze, Ballade, Lied, religioeses Lied
!! Beuttner 1602 No. 26
!!!ONB: ESAC (Essen Associative Code) Database: ALTDEU
!!!AMT: irregular
!!!AIN: vox
!!!EED: Helmut Schaffrath
!!!EEV: 1.0
*-
